packages/sources/assets/src/assets/flag-gr.svg

<svg width="28" height="20" viewBox="0 0 28 20" fill="none" xmlns="http://www.w3.org/2000/svg">
<rect x="0.25" y="0.25" width="27.5" height="19.5" rx="1.75" fill="white" stroke="#F5F5F5" stroke-width="0.5"/>
<mask id="mask0_503_4112" style="mask-type:alpha" maskUnits="userSpaceOnUse" x="0" y="0" width="28" height="20">
<rect x="0.25" y="0.25" width="27.5" height="19.5" rx="1.75" fill="white" stroke="white" stroke-width="0.5"/>
</mask>
<g mask="url(#mask0_503_4112)">
<path fill-rule="evenodd" clip-rule="evenodd" d="M5.33333 0H0V5.33333H5.33333V0ZM13.3333 0H8V5.33333H13.3333V0ZM13.3335 0H28.0002V2.66667H13.3335V0ZM28.0002 5.33331H13.3335V7.99998H28.0002V5.33331ZM13.3335 10.6667H28.0002V13.3334H13.3335V10.6667ZM28 16H0V18.6667H28V16ZM8 8H13.3333V13.3333H8V8ZM5.33333 8H0V13.3333H5.33333V8Z" fill="#1C6DC1"/>
</g>
</svg>

<svg width="28" height="20" fill="none" xmlns="http://www.w3.org/2000/svg"><rect x=".25" y=".25" width="27.5" height="19.5" rx="1.75" fill="#fff" stroke="#F5F5F5" stroke-width=".5"/><mask id="a" style="mask-type:alpha" maskUnits="userSpaceOnUse" x="0" y="0" width="28" height="20"><rect x=".25" y=".25" width="27.5" height="19.5" rx="1.75" fill="#fff" stroke="#fff" stroke-width=".5"/></mask><g mask="url(#a)"><path fill-rule="evenodd" clip-rule="evenodd" d="M5.333 0H0v5.333h5.333V0Zm8 0H8v5.333h5.333V0Zm0 0H28v2.667H13.334V0ZM28 5.333H13.334V8H28V5.333Zm-14.666 5.334H28v2.666H13.334v-2.666ZM28 16H0v2.667h28V16ZM8 8h5.333v5.333H8V8ZM5.333 8H0v5.333h5.333V8Z" fill="#1C6DC1"/></g></svg>
